X:1
T:Beautiful Dreamer
T:Beautiful Dreamer
T:Original by abswcmt and transposed https://musescore.com/user/14059291/scores/4997950
C:abswcmt
L:1/8
M:3/4
K:C
V:1 tab transpose=-12 stafflines=4 strings=E2,A2,D3,G3 nostems nm="Electric Bass" snm="El. B."
V:1
 !1!C,2 !1!B,,2 !1!C,2 | !1!G,,6 | !2!E,,6 | !2!D,,2 !3!^C,,2 !2!D,,2 | !1!A,,6 | %5
w: C B C|G|E|D C# D|A|
 !1!G,,2 !1!B,,2 !1!A,,2 | !1!A,,2 !1!G,,2 !2!F,,2 | !2!F,,2 !2!E,,2 !2!D,,2 | !2!E,,6 | %9
w: G B A|A G F|F E D|E|
 !1!C,2 !1!B,,2 !1!C,2 | !1!G,,6 | !2!E,,6 | !2!D,,2 !3!^C,,2 !2!D,,2 | !1!A,,6 | %14
w: C B C|G|E|D C# D|A|
 !1!G,,2 !1!B,,2 !1!A,,2 | !1!A,,2 !1!G,,2 !2!F,,2 | !2!F,,2 !2!E,,2 !2!D,,2 | !3!C,,6 | %18
w: G B A|A G F|F E D|C|
 !1!G,,2 !2!F,,2 !2!D,,2 | !3!B,,,6 | !1!A,,6 | !1!A,,2 !1!G,,2 !2!E,,2 | !3!C,,6 | %23
w: G F D|B|A|A G E|C|
 !1!C,2 !1!B,,2 !1!C,2 | !1!A,,6 | !1!D,4 !1!C,2 | !1!B,,2 !1!C,2 !1!A,,2 | !1!G,,6 | %28
w: C B C|A|D C|B C A|G|
 !1!A,,2 !1!B,,2 !1!C,2 | !1!C,2 !1!G,,2 !2!E,,2 | !2!F,,2 !2!E,,2 !2!D,,2 | !3!C,,6 |] %32
w: A B C|C G E|F E D|C|

